X:1
T:Title
%%score ( 1 2 ) ( 3 4 )
L:1/8
Q:1/4=112
M:3/4
K:C
V:1 treble nm="Grand Piano, Soprano"
V:2 treble 
V:3 bass nm="Choir Pad, Will There Be Light for Me?"
V:4 bass 
V:1
 E2 C2 D2 | E4 E>E | G4 F2 | F4 FF | E4 C>C | E2 D2 C2 | B,6- | B,4 B,2 | B,2 C2[K:treble] D2 | %9
 D2 C2 B,2 | C2 D2 _E2 | E4 E2 | D2 G2 A2 | B2 A2 D2 | G4- [CG-]2 | [DG-]2 [FG-]2 [EG]2 | %16
 [EG]2 [CE]2 [Ec]2 | [FB]6- | [FB]4 [DF]2 | [DF]2 [^CE]2 [DF]2 | [_EA]6 | [EG]4 [EG]2 | %22
 [DG]2 D2 [DG]2 | [DB]4 [CA]2 | G4- [CG-]2 | [DG-]2 [FG-]2 [EG]2 | [CE]2 [DF]2 [_E^F]2 | %27
 [EG]4 [Ee]2 | e2 B2 [Ed]2 | [Ec]4 [_Ec][Ec] | [Ec]2 [CE]2 [CA]2 | A2 z2 z2 | C4 A,2 | [G,C]6- | %34
 [G,C]2 z2 z2 |] %35
V:2
 x6 | x6 | x6 | x6 | x6 | x6 | x6 | x6 | x4[K:treble] x2 | x6 | x6 | x6 | x6 | C6 | B,4 z2 | x6 | %16
 x6 | x6 | x6 | x6 | x6 | x6 | x6 | x6 | B,4 z2 | x6 | x6 | x6 | E4 z2 | x6 | x6 | %31
 B,2- [B,D]2 [B,G]2 | x6 | x6 | x6 |] %35
V:3
 G,2 E,2 F,2 | G,4 C>C | B,4 A,2 | A,4 A,A, | G,4 E,>E, | G,2 F,2 E,2 | [G,,D,]6- | [G,,D,]4 D,2 | %8
w: By~Hart~Pease~Danks * *||||||||
 D,2 E,2 F,2 | F,2 E,2 D,2 | E,2 F,2 ^F,2 | G,2 A,2 [C,_B,]2 | B,2 B,2 G,2 | ^F,4 F,2 | %14
w: ||||||
 G,2- [D,G,-]2 [E,G,-]2 | [F,G,-]2 [G,A,]2 G,2 | z6 | [G,D]2 [G,D]2 [G,D]2 | [G,D]4 z2 | z6 | %20
w: ||||||
 [C,^F,]2 [C,F,]2 [C,F,]2 | G,2 A,2 [^C,_B,]2 | [D,B,]2 [D,B,]2 [D,B,]2 | G,2 ^F,2 [D,F,]2 | %24
w: ||||
 G,2 D,2 E,2 | F,2 A,2 G,2 | [C,G,]2 [C,G,]2 [C,A,]2 | G,2 C2 [C,G,]2 | [E,^G,]4 [G,B,]2 | %29
w: |||||
 A,4 [^F,A,][F,A,] | G,2 G,2 [D,^F,]2 | [G,,F,]4 [G,,F,]2 | E,4 F,2 | E,6- | E,2 z2 z2 |] %35
w: ||||||
V:4
 C,6- | C,6- | C,6- | C,6- | C,6- | C,6 | x6 | z2 z2 G,,2- | G,,6 | G,,6 | C,6- | C,4 z2 | D,6- | %13
 D,6 | G,,6- | G,,6 | x6 | x6 | x6 | x6 | x6 | C,4 z2 | x6 | D,4 z2 | G,,6- | G,,6 | x6 | C,4 z2 | %28
 x6 | x6 | x6 | x6 | C,6- | C,6- | C,2 z2 z2 |] %35

